material/.icons/material/home-variant-outline.svg

<svg xmlns="http://www.w3.org/2000/svg" viewBox="0 0 24 24"><path d="M9 13h6v6h3v-9l-6-4.5L6 10v9h3v-6m-5 8V9l8-6 8 6v12H4z"/></svg>

<?xml version="1.0" encoding="UTF-8"?><!DOCTYPE svg PUBLIC "-//W3C//DTD SVG 1.1//EN" "http://www.w3.org/Graphics/SVG/1.1/DTD/svg11.dtd"><svg xmlns="http://www.w3.org/2000/svg" xmlns:xlink="http://www.w3.org/1999/xlink" version="1.1" id="mdi-home-variant-outline" width="24" height="24" viewBox="0 0 24 24"><path d="M9,13H15V19H18V10L12,5.5L6,10V19H9V13M4,21V9L12,3L20,9V21H4Z" /></svg>
